svg/上传.svg

<svg width="25" height="26" viewBox="0 0 25 26" fill="none" xmlns="http://www.w3.org/2000/svg"><path d="M12.6538 11.6543C12.6356 11.63 12.6122 11.6104 12.5856 11.5969C12.5589 11.5834 12.5297 11.5764 12.5 11.5764C12.4704 11.5764 12.4411 11.5834 12.4145 11.5969C12.3878 11.6104 12.3645 11.63 12.3462 11.6543L9.61184 15.2521C9.5893 15.2821 9.57531 15.318 9.57148 15.3558C9.56764 15.3936 9.57412 15.4318 9.59017 15.466C9.60621 15.5001 9.63118 15.5289 9.66221 15.549C9.69324 15.5691 9.72909 15.5798 9.76565 15.5797H11.5698V21.7344C11.5698 21.8461 11.6577 21.9375 11.7652 21.9375H13.23C13.3374 21.9375 13.4253 21.8461 13.4253 21.7344V15.5822H15.2344C15.398 15.5822 15.4883 15.3867 15.3882 15.2547L12.6538 11.6543Z" fill="#81A0FF"/><path d="M19.8096 9.31074C18.6914 6.24355 15.8423 4.0625 12.5049 4.0625C9.16748 4.0625 6.31836 6.24102 5.2002 9.3082C3.10791 9.87949 1.5625 11.8625 1.5625 14.2188C1.5625 17.0244 3.74756 19.2969 6.44287 19.2969H7.42188C7.5293 19.2969 7.61719 19.2055 7.61719 19.0938V17.5703C7.61719 17.4586 7.5293 17.3672 7.42188 17.3672H6.44287C5.62012 17.3672 4.84619 17.027 4.27002 16.41C3.69629 15.7955 3.39111 14.9678 3.41797 14.1096C3.43994 13.4393 3.65967 12.8096 4.05762 12.2789C4.46533 11.7381 5.03662 11.3445 5.67139 11.1693L6.59668 10.918L6.93604 9.98867C7.146 9.40977 7.43896 8.86895 7.80762 8.37891C8.17156 7.8932 8.60267 7.46624 9.08691 7.11191C10.0903 6.37813 11.272 5.98965 12.5049 5.98965C13.7378 5.98965 14.9194 6.37813 15.9229 7.11191C16.4087 7.46738 16.8384 7.89395 17.2021 8.37891C17.5708 8.86895 17.8638 9.4123 18.0737 9.98867L18.4106 10.9154L19.3335 11.1693C20.6567 11.54 21.582 12.7918 21.582 14.2188C21.582 15.0592 21.2671 15.8514 20.6958 16.4455C20.4156 16.7386 20.0823 16.971 19.7152 17.1292C19.3481 17.2874 18.9545 17.3683 18.5571 17.3672H17.5781C17.4707 17.3672 17.3828 17.4586 17.3828 17.5703V19.0938C17.3828 19.2055 17.4707 19.2969 17.5781 19.2969H18.5571C21.2524 19.2969 23.4375 17.0244 23.4375 14.2188C23.4375 11.865 21.897 9.88457 19.8096 9.31074Z" fill="#81A0FF"/></svg>

<svg fill="none" viewBox="0 0 25 26"><path fill="#81A0FF" d="M12.654 11.654a.2.2 0 0 0-.154-.078.19.19 0 0 0-.154.078l-2.734 3.598a.207.207 0 0 0 .05.297.2.2 0 0 0 .104.03h1.804v6.155a.2.2 0 0 0 .195.203h1.465a.2.2 0 0 0 .195-.203v-6.152h1.81c.163 0 .253-.195.153-.327z"/><path fill="#81A0FF" d="M19.81 9.31c-1.119-3.066-3.968-5.248-7.305-5.248-3.338 0-6.187 2.179-7.305 5.246-2.092.571-3.637 2.555-3.637 4.91 0 2.806 2.185 5.079 4.88 5.079h.979a.2.2 0 0 0 .195-.203V17.57a.2.2 0 0 0-.195-.203h-.98c-.822 0-1.596-.34-2.172-.957a3.22 3.22 0 0 1-.852-2.3c.022-.67.242-1.3.64-1.831.407-.54.979-.934 1.613-1.11l.926-.251.339-.93a6.18 6.18 0 0 1 2.15-2.876 5.76 5.76 0 0 1 3.419-1.122c1.233 0 2.414.388 3.418 1.122a6.214 6.214 0 0 1 2.15 2.877l.338.926.922.254c1.324.371 2.249 1.623 2.249 3.05 0 .84-.315 1.632-.886 2.226a3 3 0 0 1-.98.684c-.368.158-.762.24-1.159.238h-.979a.2.2 0 0 0-.195.203v1.524a.2.2 0 0 0 .195.203h.98c2.694 0 4.88-2.273 4.88-5.078 0-2.354-1.541-4.334-3.628-4.908"/></svg>
